;FLAVOR:Marlin
;TIME:38641
;Filament used: 30.8223m
;Layer height: 0.2
;MINX:2.838
;MINY:4.948
;MINZ:0.2
;MAXX:214.938
;MAXY:219.01
;MAXZ:32.4
;Generated with Creality Slicer 4.8.2-218
M140 S100
M105
M190 S100
M104 S235
M105
M109 S235
M82 ;absolute extrusion mode

G28 ;Home

G92 E0 ;Reset Extruder
G1 Z2.0 F3000 ;Move Z Axis up
G1 X10.1 Y20 Z0.28 F5000.0 ;Move to start position
G1 X10.1 Y200.0 Z0.28 F1500.0 E15 ;Draw the first line
G1 X10.4 Y200.0 Z0.28 F5000.0 ;Move to side a little
G1 X10.4 Y20 Z0.28 F1500.0 E30 ;Draw the second line
G92 E0 ;Reset Extruder
G1 Z2.0 F3000 ;Move Z Axis up

G92 E0
G92 E0
G1 F2400 E-0.8
;LAYER_COUNT:162
;LAYER:0
M107
M204 S2000
G0 F7500 X75.997 Y11.296 Z0.2
M204 S500
;TYPE:SKIRT
G1 F2400 E0
G1 F1500 X76.195 Y10.531 E0.02628
G1 X76.469 Y9.791 E0.05253
G1 X76.817 Y9.082 E0.0788
G1 X77.235 Y8.411 E0.10509
G1 X77.718 Y7.787 E0.13134
G1 X78.123 Y7.35 E0.15115
G1 X78.24 Y7.233 E0.15666
G1 X78.826 Y6.703 E0.18294
G1 X79.462 Y6.236 E0.20918
G1 X80.142 Y5.835 E0.23544
G1 X80.86 Y5.505 E0.26172
G1 X81.607 Y5.25 E0.28797
G1 X82.376 Y5.071 E0.31423
G1 X83.16 Y4.971 E0.34052
G1 X83.755 Y4.948 E0.36032
G1 X207.021 Y4.948 E4.46017
G1 X207.81 Y4.988 E4.48644
G1 X208.59 Y5.107 E4.51269
G1 X209.355 Y5.305 E4.53897
G1 X210.095 Y5.579 E4.56521
G1 X210.804 Y5.927 E4.59148
G1 X211.475 Y6.345 E4.61778
G1 X212.099 Y6.828 E4.64402
G1 X212.536 Y7.233 E4.66384
G1 X212.653 Y7.35 E4.66934
G1 X213.183 Y7.936 E4.69562
G1 X213.65 Y8.572 E4.72187
G1 X214.051 Y9.252 E4.74812
G1 X214.381 Y9.97 E4.7744
G1 X214.636 Y10.717 E4.80066
G1 X214.815 Y11.486 E4.82692
G1 X214.915 Y12.27 E4.85321
G1 X214.938 Y12.865 E4.87301
G1 X214.938 Y136.131 E8.97285
G1 X214.898 Y136.92 E8.99913
G1 X214.779 Y137.7 E9.02537
G1 X214.581 Y138.465 E9.05166
G1 X214.307 Y139.205 E9.0779
G1 X213.959 Y139.914 E9.10417
G1 X213.541 Y140.585 E9.13046
G1 X213.058 Y141.209 E9.15671
G1 X212.653 Y141.646 E9.17653
G1 X212.536 Y141.763 E9.18203
G1 X211.95 Y142.293 E9.20831
G1 X211.314 Y142.76 E9.23455
G1 X210.634 Y143.161 E9.26081
G1 X209.916 Y143.491 E9.28709
G1 X209.169 Y143.746 E9.31334
G1 X208.4 Y143.925 E9.33961
G1 X207.616 Y144.025 E9.36589
G1 X207.021 Y144.048 E9.3857
G1 X144.755 Y144.048 E11.45667
G1 X143.966 Y144.008 E11.48295
G1 X143.186 Y143.889 E11.50919
G1 X142.421 Y143.691 E11.53547
G1 X141.681 Y143.417 E11.56172
G1 X140.972 Y143.069 E11.58799
G1 X140.301 Y142.651 E11.61428
G1 X139.677 Y142.168 E11.64053
G1 X139.24 Y141.763 E11.66034
G1 X139.123 Y141.646 E11.66585
G1 X138.593 Y141.06 E11.69213
G1 X138.126 Y140.424 E11.71837
G1 X137.725 Y139.744 E11.74463
G1 X137.395 Y139.026 E11.77091
G1 X137.14 Y138.279 E11.79716
G1 X136.961 Y137.51 E11.82342
G1 X136.861 Y136.726 E11.84971
G1 X136.838 Y136.131 E11.86952
G1 X136.838 Y109.596 E12.75207
G1 X110.287 Y83.048 E14.00088
G1 X83.755 Y83.048 E14.88334
G1 X82.966 Y83.008 E14.90961
G1 X82.186 Y82.889 E14.93586
G1 X81.421 Y82.691 E14.96214
G1 X80.681 Y82.417 E14.98838
G1 X79.972 Y82.069 E15.01465
G1 X79.301 Y81.651 E15.04095
G1 X78.677 Y81.168 E15.06719
G1 X78.24 Y80.763 E15.08701
G1 X78.123 Y80.646 E15.09251
G1 X77.593 Y80.06 E15.11879
G1 X77.126 Y79.424 E15.14504
G1 X76.725 Y78.744 E15.17129
G1 X76.395 Y78.026 E15.19758
G1 X76.14 Y77.279 E15.22383
G1 X75.961 Y76.51 E15.25009
G1 X75.861 Y75.726 E15.27638
G1 X75.838 Y75.131 E15.29618
G1 X75.838 Y12.865 E17.36716
G1 X75.878 Y12.076 E17.39343
G1 X75.997 Y11.296 E17.41968
M204 S2000
G0 F7500 X76.397 Y11.337
M204 S500
G1 F1500 X76.595 Y10.594 E17.44525
G1 X76.869 Y9.875 E17.47084
G1 X77.216 Y9.189 E17.49641
G1 X77.632 Y8.542 E17.52199
G1 X78.113 Y7.942 E17.54757
G1 X78.405 Y7.632 E17.56174
G1 X78.522 Y7.515 E17.56724
G1 X79.094 Y7.001 E17.59282
G1 X79.716 Y6.548 E17.61841
G1 X80.381 Y6.162 E17.64398
G1 X81.083 Y5.847 E17.66958
G1 X81.814 Y5.607 E17.69517
G1 X82.565 Y5.444 E17.72073
G1 X83.33 Y5.36 E17.74632
G1 X83.755 Y5.348 E17.76046
G1 X207.021 Y5.348 E21.86031
G1 X207.789 Y5.388 E21.88589
G1 X208.549 Y5.507 E21.91147
G1 X209.292 Y5.705 E21.93705
G1 X210.011 Y5.979 E21.96264
G1 X210.697 Y6.326 E21.98821
G1 X211.344 Y6.742 E22.01379
G1 X211.944 Y7.223 E22.03937
G1 X212.254 Y7.515 E22.05353
G1 X212.371 Y7.632 E22.05904
G1 X212.885 Y8.204 E22.08461
G1 X213.338 Y8.826 E22.11021
G1 X213.724 Y9.491 E22.13578
G1 X214.039 Y10.193 E22.16137
G1 X214.279 Y10.924 E22.18696
G1 X214.442 Y11.675 E22.21252
G1 X214.526 Y12.44 E22.23812
G1 X214.538 Y12.865 E22.25226
G1 X214.538 Y136.131 E26.3521
G1 X214.498 Y136.899 E26.37768
G1 X214.379 Y137.659 E26.40327
G1 X214.181 Y138.402 E26.42884
G1 X213.907 Y139.121 E26.45443
G1 X213.56 Y139.807 E26.48
G1 X213.144 Y140.454 E26.50559
G1 X212.663 Y141.054 E26.53116
G1 X212.371 Y141.364 E26.54533
G1 X212.254 Y141.481 E26.55083
G1 X211.682 Y141.995 E26.57641
G1 X211.06 Y142.448 E26.602
G1 X210.395 Y142.834 E26.62758
G1 X209.693 Y143.149 E26.65317
G1 X208.962 Y143.389 E26.67876
G1 X208.211 Y143.552 E26.70432
G1 X207.446 Y143.636 E26.72991
G1 X207.021 Y143.648 E26.74406
G1 X144.755 Y143.648 E28.81503
G1 X143.987 Y143.608 E28.84061
G1 X143.227 Y143.489 E28.86619
G1 X142.484 Y143.291 E28.89177
G1 X141.765 Y143.017 E28.91736
G1 X141.079 Y142.67 E28.94293
G1 X140.432 Y142.254 E28.96851
G1 X139.832 Y141.773 E28.99409
G1 X139.522 Y141.481 E29.00826
G1 X139.405 Y141.364 E29.01376
G1 X138.891 Y140.792 E29.03934
G1 X138.438 Y140.17 E29.06493
G1 X138.052 Y139.505 E29.0905
G1 X137.737 Y138.803 E29.11609
G1 X137.497 Y138.072 E29.14168
G1 X137.334 Y137.321 E29.16724
G1 X137.25 Y136.556 E29.19284
G1 X137.238 Y136.131 E29.20698
G1 X137.238 Y109.43 E30.09506
G1 X110.453 Y82.648 E31.35488
G1 X83.755 Y82.648 E32.24285
G1 X82.987 Y82.608 E32.26843
G1 X82.227 Y82.489 E32.29402
G1 X81.484 Y82.291 E32.31959
G1 X80.765 Y82.017 E32.34519
G1 X80.079 Y81.67 E32.37075
G1 X79.432 Y81.254 E32.39634
G1 X78.832 Y80.773 E32.42192
G1 X78.522 Y80.481 E32.43608
G1 X78.405 Y80.364 E32.44158
G1 X77.891 Y79.792 E32.46716
G1 X77.438 Y79.17 E32.49275
G1 X77.052 Y78.505 E32.51833
G1 X76.737 Y77.803 E32.54392
G1 X76.497 Y77.072 E32.56951
G1 X76.334 Y76.321 E32.59507
G1 X76.25 Y75.556 E32.62067
G1 X76.238 Y75.131 E32.63481
G1 X76.238 Y12.865 E34.70578
G1 X76.278 Y12.097 E34.73136
G1 X76.397 Y11.337 E34.75695
M204 S2000
G0 F7500 X76.797 Y11.38
M204 S500
G1 F1500 X76.995 Y10.658 E34.78185
G1 X77.268 Y9.962 E34.80671
G1 X77.615 Y9.299 E34.8316
G1 X78.03 Y8.676 E34.8565
G1 X78.688 Y7.915 E34.88996
G1 X78.805 Y7.798 E34.89546
G1 X79.362 Y7.298 E34.92036
G1 X79.968 Y6.861 E34.94521
G1 X80.618 Y6.49 E34.9701
G1 X81.304 Y6.191 E34.99499
G1 X82.018 Y5.967 E35.01988
G1 X82.751 Y5.82 E35.04474
G1 X83.755 Y5.748 E35.07822
G1 X207.021 Y5.748 E39.17807
G1 X207.768 Y5.788 E39.20295
G1 X208.506 Y5.907 E39.22781
G1 X209.228 Y6.105 E39.25271
G1 X209.924 Y6.378 E39.27758
G1 X210.587 Y6.725 E39.30247
G1 X211.21 Y7.14 E39.32736
G1 X211.971 Y7.798 E39.36082
G1 X212.088 Y7.915 E39.36633
G1 X212.588 Y8.472 E39.39122
G1 X213.025 Y9.078 E39.41607
G1 X213.396 Y9.728 E39.44097
G1 X213.695 Y10.414 E39.46586
G1 X213.919 Y11.128 E39.49074
G1 X214.066 Y11.861 E39.51561
G1 X214.138 Y12.865 E39.54909
G1 X214.138 Y136.131 E43.64893
G1 X214.098 Y136.878 E43.67381
G1 X213.979 Y137.616 E43.69868
G1 X213.781 Y138.338 E43.72358
G1 X213.508 Y139.034 E43.74844
G1 X213.161 Y139.697 E43.77333
G1 X212.746 Y140.32 E43.79823
G1 X212.088 Y141.081 E43.83169
G1 X211.971 Y141.198 E43.83719
G1 X211.414 Y141.698 E43.86209
G1 X210.808 Y142.135 E43.88694
G1 X210.158 Y142.506 E43.91183
G1 X209.472 Y142.805 E43.93672
G1 X208.758 Y143.029 E43.96161
G1 X208.025 Y143.176 E43.98647
G1 X207.021 Y143.248 E44.01995
G1 X144.755 Y143.248 E46.09093
G1 X144.008 Y143.208 E46.11581
G1 X143.27 Y143.089 E46.14067
G1 X142.548 Y142.891 E46.16557
G1 X141.852 Y142.618 E46.19044
G1 X141.189 Y142.271 E46.21533
G1 X140.566 Y141.856 E46.24023
G1 X139.805 Y141.198 E46.27369
G1 X139.688 Y141.081 E46.27919
G1 X139.188 Y140.524 E46.30409
G1 X138.751 Y139.918 E46.32893
G1 X138.38 Y139.268 E46.35383
G1 X138.081 Y138.582 E46.37872
G1 X137.857 Y137.868 E46.40361
G1 X137.71 Y137.135 E46.42847
G1 X137.638 Y136.131 E46.46195
G1 X137.638 Y109.264 E47.35555
G1 X110.619 Y82.248 E48.62637
G1 X83.755 Y82.248 E49.51987
G1 X83.008 Y82.208 E49.54475
G1 X82.27 Y82.089 E49.56961
G1 X81.548 Y81.891 E49.59452
G1 X80.852 Y81.618 E49.61938
G1 X80.189 Y81.271 E49.64427
G1 X79.566 Y80.856 E49.66917
G1 X78.805 Y80.198 E49.70263
G1 X78.688 Y80.081 E49.70813
G1 X78.188 Y79.524 E49.73303
G1 X77.751 Y78.918 E49.75788
G1 X77.38 Y78.268 E49.78277
G1 X77.081 Y77.582 E49.80766
G1 X76.857 Y76.868 E49.83255
G1 X76.71 Y76.135 E49.85741
G1 X76.638 Y75.131 E49.89089
G1 X76.638 Y12.865 E51.96187
G1 X76.678 Y12.118 E51.98675
G1 X76.797 Y11.38 E52.01161
M204 S2000
G0 F7500 X77.197 Y11.423
M204 S500
G1 F1500 X77.395 Y10.724 E52.03577
G1 X77.668 Y10.051 E52.05993
G1 X78.013 Y9.412 E52.08408
G1 X78.427 Y8.815 E52.10825
G1 X78.971 Y8.198 E52.13561
G1 X79.088 Y8.081 E52.14111
G1 X79.629 Y7.597 E52.16525
G1 X80.22 Y7.174 E52.18943
G1 X80.854 Y6.82 E52.21358
G1 X81.523 Y6.537 E52.23774
G1 X82.219 Y6.329 E52.2619
G1 X82.934 Y6.199 E52.28607
G1 X83.755 Y6.148 E52.31343
G1 X207.021 Y6.148 E56.41327
G1 X207.746 Y6.188 E56.43742
G1 X208.463 Y6.307 E56.4616
G1 X209.162 Y6.505 E56.48576
G1 X209.835 Y6.778 E56.50991
G1 X210.474 Y7.123 E56.53407
G1 X211.071 Y7.537 E56.55823
G1 X211.688 Y8.081 E56.58559
G1 X211.805 Y8.198 E56.59109
G1 X212.289 Y8.739 E56.61524
G1 X212.712 Y9.33 E56.63941
G1 X213.066 Y9.964 E56.66356
G1 X213.349 Y10.633 E56.68772
G1 X213.557 Y11.329 E56.71188
G1 X213.687 Y12.044 E56.73605
G1 X213.738 Y12.865 E56.76341
G1 X213.738 Y136.131 E60.86326
G1 X213.698 Y136.856 E60.88741
G1 X213.579 Y137.573 E60.91158
G1 X213.381 Y138.272 E60.93574
G1 X213.108 Y138.945 E60.9599
G1 X212.763 Y139.584 E60.98405
G1 X212.349 Y140.181 E61.00822
G1 X211.805 Y140.798 E61.03557
G1 X211.688 Y140.915 E61.04108
G1 X211.147 Y141.399 E61.06522
G1 X210.556 Y141.822 E61.08939
G1 X209.922 Y142.176 E61.11355
G1 X209.253 Y142.459 E61.13771
G1 X208.557 Y142.667 E61.16187
G1 X207.842 Y142.797 E61.18604
G1 X207.021 Y142.848 E61.2134
G1 X144.755 Y142.848 E63.28437
G1 X144.03 Y142.808 E63.30852
G1 X143.313 Y142.689 E63.3327
G1 X142.614 Y142.491 E63.35686
G1 X141.941 Y142.218 E63.38102
G1 X141.302 Y141.873 E63.40517
G1 X140.705 Y141.459 E63.42933
G1 X140.088 Y140.915 E63.45669
G1 X139.971 Y140.798 E63.46219
G1 X139.487 Y140.257 E63.48634
G1 X139.064 Y139.666 E63.51051
G1 X138.71 Y139.032 E63.53466
G1 X138.427 Y138.363 E63.55882
G1 X138.219 Y137.667 E63.58298
G1 X138.089 Y136.952 E63.60715
G1 X138.038 Y136.131 E63.63451
G1 X138.038 Y109.099 E64.5336
G1 X110.784 Y81.848 E65.81547
G1 X83.755 Y81.848 E66.71446
G1 X83.03 Y81.808 E66.73861
G1 X82.313 Y81.689 E66.76279
G1 X81.614 Y81.491 E66.78695
G1 X80.941 Y81.218 E66.81111
G1 X80.302 Y80.873 E66.83526
G1 X79.705 Y80.459 E66.85942
G1 X79.088 Y79.915 E66.88678
G1 X78.971 Y79.798 E66.89228
G1 X78.487 Y79.257 E66.91643
G1 X78.064 Y78.666 E66.9406
G1 X77.71 Y78.032 E66.96475
G1 X77.427 Y77.363 E66.98891
G1 X77.219 Y76.667 E67.01307
G1 X77.089 Y75.952 E67.03724
G1 X77.038 Y75.131 E67.0646
G1 X77.038 Y12.865 E69.13558
G1 X77.078 Y12.14 E69.15973
G1 X77.197 Y11.423 E69.1839
M204 S2000
G0 F7500 X77.597 Y11.468
M204 S500
G1 F1500 X77.795 Y10.793 E69.2073
G1 X78.067 Y10.144 E69.2307
G1 X78.412 Y9.53 E69.25413
G1 X78.823 Y8.959 E69.27753
G1 X79.254 Y8.481 E69.29894
G1 X79.371 Y8.364 E69.30444
G1 X79.896 Y7.895 E69.32785
G1 X80.471 Y7.489 E69.35126
G1 X81.089 Y7.151 E69.37469
G1 X81.74 Y6.884 E69.3981
G1 X82.418 Y6.694 E69.42151
G1 X83.113 Y6.581 E69.44493
G1 X83.755 Y6.548 E69.46632
G1 X207.021 Y6.548 E73.56616
G1 X207.724 Y6.588 E73.58958
G1 X208.418 Y6.707 E73.613
G1 X209.093 Y6.905 E73.63639
G1 X209.742 Y7.177 E73.6598
G1 X210.356 Y7.522 E73.68322
G1 X210.927 Y7.933 E73.70662
G1 X211.405 Y8.364 E73.72803
G1 X211.522 Y8.481 E73.73353
G1 X211.991 Y9.006 E73.75695
G1 X212.397 Y9.581 E73.78036
G1 X212.735 Y10.199 E73.80379
G1 X213.002 Y10.85 E73.82719
G1 X213.192 Y11.528 E73.85061
G1 X213.305 Y12.223 E73.87403
G1 X213.338 Y12.865 E73.89541
G1 X213.338 Y136.131 E77.99525
G1 X213.298 Y136.834 E78.01867
G1 X213.179 Y137.528 E78.04209
G1 X212.981 Y138.203 E78.06549
G1 X212.709 Y138.852 E78.0889
G1 X212.364 Y139.466 E78.11232
G1 X211.953 Y140.037 E78.13572
G1 X211.522 Y140.515 E78.15713
G1 X211.405 Y140.632 E78.16263
G1 X210.88 Y141.101 E78.18604
G1 X210.305 Y141.507 E78.20946
G1 X209.687 Y141.845 E78.23288
G1 X209.036 Y142.112 E78.25629
G1 X208.358 Y142.302 E78.27971
G1 X207.663 Y142.415 E78.30312
G1 X207.021 Y142.448 E78.32451
G1 X144.755 Y142.448 E80.39548
G1 X144.052 Y142.408 E80.4189
G1 X143.358 Y142.289 E80.44232
G1 X142.683 Y142.091 E80.46572
G1 X142.034 Y141.819 E80.48912
G1 X141.42 Y141.474 E80.51255
G1 X140.849 Y141.063 E80.53595
G1 X140.371 Y140.632 E80.55735
G1 X140.254 Y140.515 E80.56286
G1 X139.785 Y139.99 E80.58627
G1 X139.379 Y139.415 E80.60968
G1 X139.041 Y138.797 E80.63311
G1 X138.774 Y138.146 E80.65651
G1 X138.584 Y137.468 E80.67993
G1 X138.471 Y136.773 E80.70335
G1 X138.438 Y136.131 E80.72473
G1 X138.438 Y108.933 E81.62934
G1 X110.95 Y81.448 E82.92222
G1 X83.755 Y81.448 E83.82673
G1 X83.052 Y81.408 E83.85015
G1 X82.358 Y81.289 E83.87357
G1 X81.683 Y81.091 E83.89697
G1 X81.034 Y80.819 E83.92037
G1 X80.42 Y80.474 E83.9438
G1 X79.849 Y80.063 E83.9672
G1 X79.371 Y79.632 E83.9886
G1 X79.254 Y79.515 E83.99411
G1 X78.785 Y78.99 E84.01752
G1 X78.379 Y78.415 E84.04093
G1 X78.041 Y77.797 E84.06436
G1 X77.774 Y77.146 E84.08776
G1 X77.584 Y76.468 E84.11118
G1 X77.471 Y75.773 E84.1346
G1 X77.438 Y75.131 E84.15598
G1 X77.438 Y12.865 E86.22696
G1 X77.478 Y12.162 E86.25038
G1 X77.597 Y11.468 E86.2738
M204 S2000
G0 F7500 X77.997 Y11.515
M204 S500
G1 F1500 X78.194 Y10.863 E86.29645
G1 X78.466 Y10.239 E86.31909
G1 X78.81 Y9.651 E86.34175
G1 X79.22 Y9.107 E86.36441
G1 X79.537 Y8.764 E86.37994
G1 X79.654 Y8.647 E86.38545
G1 X80.163 Y8.194 E86.40811
G1 X80.721 Y7.805 E86.43073
G1 X81.321 Y7.483 E86.45338
G1 X81.955 Y7.234 E86.47604
G1 X82.614 Y7.061 E86.4987
G1 X83.288 Y6.967 E86.52133
G1 X83.755 Y6.948 E86.53688
G1 X207.021 Y6.948 E90.63672
G1 X207.701 Y6.988 E90.65938
G1 X208.371 Y7.107 E90.68201
G1 X209.023 Y7.304 E90.70466
G1 X209.647 Y7.576 E90.7273
G1 X210.235 Y7.92 E90.74996
G1 X210.779 Y8.33 E90.77262
G1 X211.122 Y8.647 E90.78815
G1 X211.239 Y8.764 E90.79366
G1 X211.692 Y9.273 E90.81632
G1 X212.081 Y9.831 E90.83894
G1 X212.403 Y10.431 E90.86159
G1 X212.652 Y11.065 E90.88425
G1 X212.825 Y11.724 E90.90691
G1 X212.919 Y12.398 E90.92954
G1 X212.938 Y12.865 E90.94509
G1 X212.938 Y136.131 E95.04493
G1 X212.898 Y136.811 E95.06759
G1 X212.779 Y137.481 E95.09022
G1 X212.582 Y138.133 E95.11287
G1 X212.31 Y138.757 E95.13551
G1 X211.966 Y139.345 E95.15817
G1 X211.556 Y139.889 E95.18083
G1 X211.239 Y140.232 E95.19636
G1 X211.122 Y140.349 E95.20187
G1 X210.613 Y140.802 E95.22453
G1 X210.055 Y141.191 E95.24715
G1 X209.455 Y141.513 E95.2698
G1 X208.821 Y141.762 E95.29246
G1 X208.162 Y141.935 E95.31512
G1 X207.488 Y142.029 E95.33775
G1 X207.021 Y142.048 E95.3533
G1 X144.755 Y142.048 E97.42427
G1 X144.075 Y142.008 E97.44693
G1 X143.405 Y141.889 E97.46956
G1 X142.753 Y141.692 E97.49222
G1 X142.129 Y141.42 E97.51486
G1 X141.541 Y141.076 E97.53751
G1 X140.997 Y140.666 E97.56017
G1 X140.654 Y140.349 E97.5757
G1 X140.537 Y140.232 E97.58121
G1 X140.084 Y139.723 E97.60387
G1 X139.695 Y139.165 E97.62649
G1 X139.373 Y138.565 E97.64914
G1 X139.124 Y137.931 E97.6718
G1 X138.951 Y137.272 E97.69446
G1 X138.857 Y136.598 E97.71709
G1 X138.838 Y136.131 E97.73264
G1 X138.838 Y108.767 E98.64277
G1 X111.116 Y81.048 E99.94666
G1 X83.755 Y81.048 E100.85669
G1 X83.075 Y81.008 E100.87934
G1 X82.405 Y80.889 E100.90198
G1 X81.753 Y80.692 E100.92463
G1 X81.129 Y80.42 E100.94727
G1 X80.541 Y80.076 E100.96993
G1 X79.997 Y79.666 E100.99259
G1 X79.654 Y79.349 E101.00812
G1 X79.537 Y79.232 E101.01362
G1 X79.084 Y78.723 E101.03629
G1 X78.695 Y78.165 E101.05891
G1 X78.373 Y77.565 E101.08156
G1 X78.124 Y76.931 E101.10421
G1 X77.951 Y76.272 E101.12687
G1 X77.857 Y75.598 E101.14951
G1 X77.838 Y75.131 E101.16505
